svg/fluentui-system-icons/ic_fluent_hourglass_one_quarter_24_regular.svg

<svg width="24" height="24" viewBox="0 0 24 24" fill="none" xmlns="http://www.w3.org/2000/svg">
<path d="M6.88402 17.1503C7.13132 16.6888 7.4868 16.2941 7.92 16H16.08C16.5132 16.2941 16.8687 16.6888 17.116 17.1503C17.3633 17.6118 17.4951 18.1264 17.5 18.65V19.25C17.5 19.3163 17.4737 19.3799 17.4268 19.4268C17.3799 19.4737 17.3163 19.5 17.25 19.5H6.75C6.6837 19.5 6.62011 19.4737 6.57322 19.4268C6.52634 19.3799 6.5 19.3163 6.5 19.25V18.65C6.50495 18.1264 6.63672 17.6118 6.88402 17.1503ZM6.75 2C5.23122 2 4 3.23122 4 4.75V5.16905C4 7.18881 5.05972 9.06047 6.79165 10.0996L8.6021 11.1859C9.07166 11.4676 9.09078 12.1413 8.63796 12.4492L6.51672 13.8917C4.94237 14.9622 4 16.7426 4 18.6465V19.25C4 20.7688 5.23122 22 6.75 22H17.25C18.7688 22 20 20.7688 20 19.25V18.6465C20 16.7426 19.0576 14.9622 17.4833 13.8917L15.362 12.4492C14.9092 12.1413 14.9283 11.4676 15.3979 11.1859L17.2084 10.0996C18.9403 9.06047 20 7.18881 20 5.16905V4.75C20 3.23122 18.7688 2 17.25 2H6.75ZM5.5 4.75C5.5 4.05964 6.05964 3.5 6.75 3.5H17.25C17.9404 3.5 18.5 4.05964 18.5 4.75V5.16905C18.5 6.66192 17.7167 8.04532 16.4366 8.81339L14.6262 9.89966C13.2175 10.7449 13.1601 12.7658 14.5186 13.6896L16.6398 15.132C17.8035 15.9233 18.5 17.2393 18.5 18.6465V19.25C18.5 19.9404 17.9404 20.5 17.25 20.5H6.75C6.05964 20.5 5.5 19.9404 5.5 19.25V18.6465C5.5 17.2393 6.19654 15.9233 7.36018 15.132L9.48142 13.6896C10.8399 12.7658 10.7825 10.7449 9.37384 9.89966L7.56339 8.81339C6.28327 8.04532 5.5 6.66192 5.5 5.16905V4.75Z" fill="#212121"/>
</svg>

<svg xmlns="http://www.w3.org/2000/svg" width="24" height="24"><path d="M6.884 17.15A3.24 3.24 0 0 1 7.92 16h8.16a3.24 3.24 0 0 1 1.42 2.65v.6a.25.25 0 0 1-.25.25H6.75a.25.25 0 0 1-.25-.25v-.6a3.24 3.24 0 0 1 .384-1.5ZM6.75 2A2.75 2.75 0 0 0 4 4.75v.42a5.75 5.75 0 0 0 2.792 4.93l1.81 1.086a.75.75 0 0 1 .036 1.263l-2.121 1.443A5.75 5.75 0 0 0 4 18.647v.603A2.75 2.75 0 0 0 6.75 22h10.5A2.75 2.75 0 0 0 20 19.25v-.604a5.75 5.75 0 0 0-2.517-4.754l-2.121-1.443a.75.75 0 0 1 .036-1.263l1.81-1.086A5.75 5.75 0 0 0 20 5.17v-.42A2.75 2.75 0 0 0 17.25 2H6.75ZM5.5 4.75c0-.69.56-1.25 1.25-1.25h10.5c.69 0 1.25.56 1.25 1.25v.42a4.25 4.25 0 0 1-2.063 3.643L14.627 9.9c-1.41.845-1.467 2.866-.108 3.79l2.12 1.442a4.25 4.25 0 0 1 1.861 3.514v.604c0 .69-.56 1.25-1.25 1.25H6.75c-.69 0-1.25-.56-1.25-1.25v-.604a4.25 4.25 0 0 1 1.86-3.514l2.121-1.442c1.359-.924 1.302-2.945-.107-3.79l-1.81-1.087A4.25 4.25 0 0 1 5.5 5.17v-.42Z"/></svg>
